images/tabbar-moments.svg

<svg xmlns="http://www.w3.org/2000/svg" width="18" height="18" viewBox="0 0 18 18">
  <defs>
    <style>
      .cls-1, .cls-2 {
        fill: none;
      }

      .cls-3, .cls-4 {
        stroke: none;
      }

      .cls-4 {
        fill: #555770;
      }
    </style>
  </defs>
  <g id="组_608" data-name="组 608" transform="translate(-1139 -1129)">
    <rect id="矩形_647" data-name="矩形 647" class="cls-1" width="18" height="18" transform="translate(1139 1129)"/>
    <g id="路径_1196" data-name="路径 1196" class="cls-2" transform="translate(1141.01 1130.992)">
      <path class="cls-3" d="M10.394,7.29l3.655-1.916a.5.5,0,0,0,.231-.619A7.41,7.41,0,0,0,10.374.643a.5.5,0,0,0-.7.447V6.853a.493.493,0,0,0,.721.436ZM8.688,4.642V.552A.5.5,0,0,0,8.252.061,7.349,7.349,0,0,0,3.089,1.383a.494.494,0,0,0,.033.828L7.945,5.065a.492.492,0,0,0,.743-.424ZM12.605,12a.5.5,0,0,0,.645-.126A7.35,7.35,0,0,0,14.75,6.9a.494.494,0,0,0-.722-.4L9.122,9.069a.492.492,0,0,0-.022.86L12.605,12ZM6.076,10.148v4.094a.5.5,0,0,0,.437.491,7.364,7.364,0,0,0,5.162-1.327.494.494,0,0,0-.033-.828L6.82,9.724a.493.493,0,0,0-.743.424ZM4.37,7.5.708,9.42a.5.5,0,0,0-.231.619,7.411,7.411,0,0,0,3.913,4.115.5.5,0,0,0,.7-.447V7.936A.492.492,0,0,0,4.37,7.5ZM2.156,2.784a.5.5,0,0,0-.645.125,7.351,7.351,0,0,0-1.5,4.983.494.494,0,0,0,.722.4L5.642,5.72a.492.492,0,0,0,.022-.86Z"/>
      <path class="cls-4" d="M 7.368663311004639 0.8077077865600586 C 6.151172637939453 0.8077077865600586 4.978692054748535 1.139243125915527 3.949305534362793 1.771051406860352 L 7.888053417205811 4.102236747741699 L 7.888053417205811 0.8283815383911133 C 7.715109348297119 0.8146419525146484 7.541287422180176 0.8077077865600586 7.368663311004639 0.8077077865600586 M 10.4731330871582 1.580392837524414 L 10.4731330871582 6.344982147216797 L 13.4318904876709 4.79362964630127 C 12.83506202697754 3.407463073730469 11.80045032501221 2.285540580749512 10.4731330871582 1.580392837524414 M 1.986266136169434 3.612932205200195 C 1.21141242980957 4.71198844909668 0.7950305938720703 6.019452095031738 0.7898740768432617 7.360831260681152 L 4.782011985778809 5.267611503601074 L 1.986266136169434 3.612932205200195 M 13.96687602996826 7.432198524475098 L 9.982158660888672 9.521272659301758 L 12.7745885848999 11.17402362823486 C 13.54676151275635 10.07631492614746 13.961669921875 8.770968437194824 13.96687602996826 7.432198524475098 M 4.291243553161621 8.444141387939453 L 1.325119018554688 9.999408721923828 C 1.923222541809082 11.38834762573242 2.960441589355469 12.5117073059082 4.291243553161621 13.21652698516846 L 4.291243553161621 8.444141387939453 M 6.876343727111816 10.68673896789551 L 6.876343727111816 13.96485710144043 C 7.044656753540039 13.97794914245605 7.212679386138916 13.98455715179443 7.378383636474609 13.98455715179443 C 8.603069305419922 13.98455715179443 9.781400680541992 13.6515417098999 10.81414031982422 13.01735687255859 L 6.876343727111816 10.68673896789551 M 7.36866283416748 0.007710456848144531 C 7.662399291992188 0.007710456848144531 7.957248687744141 0.02532958984375 8.251653671264648 0.06095695495605469 C 8.500432968139648 0.09062767028808594 8.687823295593262 0.3014869689941406 8.688053131103516 0.552027702331543 L 8.688053131103516 4.641617774963379 C 8.688053131103516 4.929466247558594 8.451637268066406 5.134864807128906 8.194653511047363 5.134864807128906 C 8.11107063293457 5.134864807128906 8.025309562683105 5.11313533782959 7.944803714752197 5.065447807312012 L 3.121813774108887 2.210906982421875 C 2.813723564147949 2.028667449951172 2.797713279724121 1.590797424316406 3.088813781738281 1.382697105407715 C 4.342686653137207 0.4843511581420898 5.840832710266113 0.007706642150878906 7.36866283416748 0.007710456848144531 Z M 10.16801643371582 0.598602294921875 C 10.23613929748535 0.598602294921875 10.30611610412598 0.6126213073730469 10.37426376342773 0.6428976058959961 C 12.16974353790283 1.441457748413086 13.57452392578125 2.920467376708984 14.27965354919434 4.754647254943848 C 14.37090301513672 4.989477157592773 14.27181339263916 5.255416870117188 14.04914379119873 5.37327766418457 L 10.39447402954102 7.289517402648926 L 10.39446353912354 7.289517402648926 C 10.31992340087891 7.328578948974609 10.24202728271484 7.34647798538208 10.16612815856934 7.34647798538208 C 9.908013343811035 7.34647798538208 9.673133850097656 7.139406681060791 9.673133850097656 6.853367328643799 L 9.673133850097656 1.090126991271973 C 9.673133850097656 0.8044061660766602 9.906996726989746 0.598602294921875 10.16801643371582 0.598602294921875 Z M 1.904567718505859 2.71494197845459 C 1.990476608276367 2.714946746826172 2.077288627624512 2.737295150756836 2.155943870544434 2.783737182617188 L 5.664083480834961 4.86005687713623 C 5.996063232421875 5.056337356567383 5.983503341674805 5.540997505187988 5.641923904418945 5.720037460327148 L 0.7290439605712891 8.296027183532715 C 0.6546421051025391 8.335084915161133 0.57659912109375 8.353050231933594 0.5004072189331055 8.353050231933594 C 0.2532815933227539 8.353050231933594 0.02585792541503906 8.163955688476563 0.007223129272460938 7.892147541046143 C -0.1159563064575195 6.103287696838379 0.4189233779907227 4.331097602844238 1.511203765869141 2.909087181091309 C 1.607930183410645 2.782735824584961 1.75490665435791 2.714934349060059 1.904567718505859 2.71494197845459 Z M 14.25634574890137 6.440004348754883 C 14.50346946716309 6.440016746520996 14.7308988571167 6.629099369049072 14.74953365325928 6.900907516479492 C 14.87252330780029 8.687026977539063 14.33940315246582 10.45662689208984 13.25023365020752 11.87756729125977 C 13.15352725982666 12.00418853759766 13.00636672973633 12.07215785980225 12.85652351379395 12.07215785980225 C 12.77064609527588 12.07215785980225 12.68388175964355 12.04982757568359 12.60524368286133 12.00341701507568 L 12.60524368286133 12.00339698791504 L 9.100063323974609 9.928807258605957 C 8.768083572387695 9.732537269592285 8.780643463134766 9.247867584228516 9.122222900390625 9.068826675415039 L 14.02771377563477 6.497027397155762 C 14.10211277008057 6.457969665527344 14.18015480041504 6.440000534057617 14.25634574890137 6.440004348754883 Z M 4.598437309265137 7.442500114440918 C 4.856480598449707 7.442504405975342 5.091243743896484 7.649580478668213 5.091243743896484 7.935737133026123 L 5.091243743896484 13.70611763000488 C 5.091243743896484 13.99197769165039 4.857491493225098 14.19767475128174 4.596453666687012 14.19767475128174 C 4.528477668762207 14.19767475128174 4.458629608154297 14.18371772766113 4.390603065490723 14.15359687805176 C 2.591533660888672 13.35585784912109 1.183633804321289 11.87530708312988 0.4773435592651367 10.03840732574463 C 0.3860931396484375 9.803577423095703 0.4851932525634766 9.537627220153809 0.7078533172607422 9.419767379760742 L 4.369913101196289 7.499587535858154 C 4.444513320922852 7.460439682006836 4.522480010986328 7.442498683929443 4.598437309265137 7.442500114440918 Z M 6.569737434387207 9.654258728027344 C 6.653366088867188 9.654260635375977 6.739205360412598 9.675989151000977 6.819833278656006 9.723676681518555 L 11.64159393310547 12.57746696472168 C 11.94943332672119 12.75946712493896 11.96544361114502 13.19708728790283 11.67483329772949 13.40543746948242 C 10.46416282653809 14.27304744720459 8.981363296508789 14.7845573425293 7.378383636474609 14.7845573425293 C 7.085563659667969 14.7845573425293 6.796933650970459 14.76657772064209 6.512983322143555 14.73283767700195 C 6.264103889465332 14.70328712463379 6.076583862304688 14.49239730834961 6.076343536376953 14.24177742004395 L 6.076343536376953 10.14750671386719 C 6.076343536376953 9.859659194946289 6.312612533569336 9.654256820678711 6.569737434387207 9.654258728027344 Z"/>
    </g>
  </g>
</svg>

<svg xmlns="http://www.w3.org/2000/svg" width="14.777" height="14.777" viewBox="0 0 14.777 14.777">
  <defs>
    <style>
      .cls-1 {
        fill: none;
      }

      .cls-2 {
        fill: #555770;
      }
    </style>
  </defs>
  <g id="tabbar-moments" transform="translate(0.01 -0.008)">
    <path id="路径_1" data-name="路径 1" class="cls-1" d="M10.394,7.29l3.655-1.916a.5.5,0,0,0,.231-.619A7.41,7.41,0,0,0,10.374.643a.5.5,0,0,0-.7.447V6.853a.493.493,0,0,0,.721.436ZM8.688,4.642V.552A.5.5,0,0,0,8.252.061,7.349,7.349,0,0,0,3.089,1.383a.494.494,0,0,0,.033.828L7.945,5.065a.492.492,0,0,0,.743-.424ZM12.6,12a.5.5,0,0,0,.645-.126A7.35,7.35,0,0,0,14.75,6.9a.494.494,0,0,0-.722-.4L9.122,9.069a.492.492,0,0,0-.022.86ZM6.076,10.148v4.094a.5.5,0,0,0,.437.491,7.364,7.364,0,0,0,5.162-1.327.494.494,0,0,0-.033-.828L6.82,9.724a.493.493,0,0,0-.743.424ZM4.37,7.5.708,9.42a.5.5,0,0,0-.231.619A7.411,7.411,0,0,0,4.39,14.154a.5.5,0,0,0,.7-.447V7.936A.492.492,0,0,0,4.37,7.5ZM2.156,2.784a.5.5,0,0,0-.645.125,7.351,7.351,0,0,0-1.5,4.983.494.494,0,0,0,.722.4L5.642,5.72a.492.492,0,0,0,.022-.86Z"/>
    <path id="路径_2" data-name="路径 2" class="cls-2" d="M7.369.808a6.506,6.506,0,0,0-3.419.963L7.888,4.1V.828C7.715.815,7.541.808,7.369.808m3.1.773V6.345l2.959-1.551A6.555,6.555,0,0,0,10.473,1.58M1.986,3.613A6.545,6.545,0,0,0,.79,7.361L4.782,5.268l-2.8-1.655M13.967,7.432,9.982,9.521l2.792,1.653a6.545,6.545,0,0,0,1.192-3.742M4.291,8.444,1.325,10a6.555,6.555,0,0,0,2.966,3.217V8.444m2.585,2.243v3.278c.168.013.336.02.5.02a6.535,6.535,0,0,0,3.436-.967L6.876,10.687M7.369.008a7.349,7.349,0,0,1,.883.053.5.5,0,0,1,.436.491v4.09a.493.493,0,0,1-.493.493.488.488,0,0,1-.25-.069L3.122,2.211a.494.494,0,0,1-.033-.828A7.349,7.349,0,0,1,7.369.008Zm2.8.591a.507.507,0,0,1,.206.044A7.411,7.411,0,0,1,14.28,4.755a.5.5,0,0,1-.231.619L10.394,7.29h0a.492.492,0,0,1-.721-.436V1.09A.492.492,0,0,1,10.168.6ZM1.9,2.715a.493.493,0,0,1,.251.069L5.664,4.86a.492.492,0,0,1-.022.86L.729,8.3a.493.493,0,0,1-.722-.4,7.351,7.351,0,0,1,1.5-4.983A.5.5,0,0,1,1.9,2.715ZM14.256,6.44a.5.5,0,0,1,.493.461,7.35,7.35,0,0,1-1.5,4.977.495.495,0,0,1-.645.126h0L9.1,9.929a.492.492,0,0,1,.022-.86L14.028,6.5A.49.49,0,0,1,14.256,6.44Zm-9.658,1a.493.493,0,0,1,.493.493v5.77A.492.492,0,0,1,4.6,14.2a.507.507,0,0,1-.206-.044A7.411,7.411,0,0,1,.477,10.038.5.5,0,0,1,.708,9.42L4.37,7.5A.49.49,0,0,1,4.6,7.443ZM6.57,9.654a.489.489,0,0,1,.25.069l4.822,2.854a.494.494,0,0,1,.033.828,7.362,7.362,0,0,1-5.162,1.327.5.5,0,0,1-.437-.491V10.148A.493.493,0,0,1,6.57,9.654Z"/>
  </g>
</svg>
